X: 1
T: Aitken Drum (transpos, The
R:Reel
S:8 x 32 Reel 1,2,3,4  2,3,4,1
B:RSCDS Graded
B: Angus Macleod (the Scottish National Dance Company)
M:4/4
L:1/8
%
K:G
|:"G"B2 B2 B2 AG | "C"E4         G3E   |\
"G"D2 D2 E2 G2 | "Am"B2 A2 "D7"A2 GA |!
"G"B2 B2 B2 AG | "C"E4         G3E   |\
"D7"D2 D2 E2 F2 | "G"G6         GA   :|!
|: \
"G"B2 B2 B2 AG | "C"c4         e2 c2 |\
"G"B2 d2  B2 G2 | "Am"B2 A2 "D7"A2 GA |!
"G"B2 B2 B2 AG | "C"E4         G3E   |\
"D7"D2 D2 E2 F2 |1 "G"G6         GA   :|2 "G"G6  z2  ||

%%sep 1 1 500
%%sep 1 1 500

